svgs/duotone/brain-arrow-curved-right.svg

<svg xmlns="http://www.w3.org/2000/svg" viewBox="0 0 640 512"><!--! Font Awesome Pro 6.3.0 by @fontawesome - https://fontawesome.com License - https://fontawesome.com/license (Commercial License) Copyright 2023 Fonticons, Inc. --><defs><style>.fa-secondary{opacity:.4}</style></defs><path class="fa-primary" d="M602.9 339.7l-96.01-95.13c-10.13-10-27.08-2.637-27.08 12.11L479.9 303.9l-79.91-.0338c-5.625 0-11.25-.125-17 .75c-47.13 7-85.63 44.5-93.38 91.5c-7.875 46.75 13.25 90.5 48.25 113.8c9.752 6.5 21.63-3.25 17.75-14.38c-9-26.62-5.51-95.51 60.37-95.51h64l.0117 47.14c0 14.88 17.01 22.2 27.14 12.2l95.87-95.2C609.7 357.5 609.7 346.3 602.9 339.7z"/><path class="fa-secondary" d="M203.7 0C176.8 0 154.8 20.51 152 46.74C126 53.2 106.7 76.52 106.7 104.5c0 5.852 1.104 11.39 2.672 16.74c-27.04 5.676-47.47 29.2-47.47 57.93c0 14.09 5.082 26.87 13.25 37.09C49.71 228.2 32 253.8 32 283.7c0 31.98 20.2 59.05 48.46 69.68c-2.225 6.254-3.658 12.89-3.658 19.92c0 32.98 26.74 59.73 59.73 59.73c5.383 0 10.5-.9404 15.46-2.276c2.641 26.39 24.66 47.08 51.74 47.08C232.6 477.9 256 454.5 256 425.6V52.27C256 23.4 232.6 0 203.7 0zM482.1 179.2c0-28.73-20.44-52.25-47.47-57.93c1.566-5.348 2.672-10.89 2.672-16.74c0-28.01-19.35-51.33-45.36-57.79C389.2 20.51 367.2 0 340.3 0C311.4 0 288 23.4 288 52.27v273.1c22.2-27.49 54.09-47.02 90.21-52.39c6.793-1.031 12.89-1.118 18.06-1.118l51.62 .0049V256.7c0-16.74 8.324-31.56 21.06-40.33c-.0449-.0234 .0449 .0195 0 0C477.1 206.1 482.1 193.3 482.1 179.2z"/></svg>

<svg xmlns="http://www.w3.org/2000/svg" viewBox="0 0 640 512"><!-- Font Awesome Pro 6.0.0-alpha2 by @fontawesome - https://fontawesome.com License - https://fontawesome.com/license (Commercial License) --><defs><style>.fa-secondary{opacity:.4}</style></defs><path d="M203.734 0C176.762 0 154.822 20.508 152.025 46.742C126.018 53.199 106.668 76.523 106.668 104.531C106.668 110.383 107.771 115.926 109.34 121.273C82.305 126.949 61.867 150.469 61.867 179.199C61.867 193.289 66.949 206.07 75.113 216.285C49.709 228.199 32 253.82 32 283.734C32 315.711 52.201 342.781 80.459 353.418C78.234 359.672 76.801 366.312 76.801 373.336C76.801 406.32 103.545 433.066 136.533 433.066C141.916 433.066 147.029 432.125 151.99 430.789C154.631 457.18 176.646 477.867 203.734 477.867C232.6 477.867 256 454.469 256 425.602V52.266C256 23.398 232.6 0 203.734 0ZM482.135 179.199C482.135 150.469 461.697 126.949 434.662 121.273C436.229 115.926 437.334 110.383 437.334 104.531C437.334 76.523 417.984 53.199 391.977 46.742C389.18 20.508 367.238 0 340.268 0C311.4 0 288 23.398 288 52.266V325.41C310.203 297.922 342.092 278.391 378.207 273.023C385 271.992 391.094 271.906 396.271 271.906H398.225L400.02 271.91H447.895V256.66C447.895 239.922 456.281 225.141 469.014 216.367C468.969 216.344 468.934 216.305 468.889 216.285C477.051 206.07 482.135 193.289 482.135 179.199Z" class="fa-secondary"/><path d="M602.921 339.66L506.913 244.535C496.786 234.535 479.909 241.91 479.909 256.66V303.91H400.029C394.404 303.91 388.777 303.785 383.027 304.66C335.898 311.66 297.394 349.16 289.644 396.16C281.769 442.91 302.896 486.66 337.898 509.91C347.65 516.41 359.525 506.66 355.65 495.535C346.65 468.91 350.15 400.035 416.03 400.035H480.034V447.16C480.034 462.035 496.911 469.41 507.038 459.41L603.046 364.16C609.671 357.535 609.671 346.285 602.921 339.66Z" class="fa-primary"/></svg>
